X: 38027
T: Speybay Switch, The
R: reel
M: 4/4
K: Dmajor
|:e2 de cAAB|cAdA eAfA|g2 fg ed d/d/d|Bcde fe e/e/e|
e2 de cA AB|cAdA eAfA|g2 fg ed d/d/d|cAed cA A2:|
|:f3 a fe e/e/e|ef f/f/f edcd|e2 de cAAB|cAed cAA2|
f3 a fe e/e/e|ef f/f/f edcd|e2 de cAAB|cAed cAce:|
|:g2 fg ed d/d/d|g2 fg ed d/d/d|aaga aaga|gfed B/c/d ef|
g2 fg ed d/d/d|g2 fg ed d/d/d|aaga aaga|e2 de cA A2:|

